villages/Hoshigakure_Symbol.svg

<svg xmlns:svg="http://www.w3.org/2000/svg" xmlns="http://www.w3.org/2000/svg" xmlns:sodipodi="http://sodipodi.sourceforge.net/DTD/sodipodi-0.dtd" xmlns:inkscape="http://www.inkscape.org/namespaces/inkscape" width="100.00002" height="100" id="svg2" sodipodi:version="0.32" inkscape:version="0.46" version="1.0" sodipodi:docname="Village Symbol Hoshigakure.svg" inkscape:output_extension="org.inkscape.output.svg.inkscape">
    <defs id="defs4"/>
    <sodipodi:namedview id="base" pagecolor="#ffffff" bordercolor="#666666" borderopacity="1.0" gridtolerance="10000" guidetolerance="10" objecttolerance="10" inkscape:pageopacity="0.0" inkscape:pageshadow="2" inkscape:zoom="1" inkscape:cx="50.000003" inkscape:cy="49.999998" inkscape:document-units="px" inkscape:current-layer="svg2" showgrid="true" inkscape:window-width="1280" inkscape:window-height="930" inkscape:window-x="-4" inkscape:window-y="-4"/>
    <g inkscape:label="Layer 1" inkscape:groupmode="layer" id="layer1" transform="translate(-398.53357,-684.7021)">
        <path sodipodi:type="star" style="opacity:1;fill:none;stroke:#000000;stroke-width:2.49348354;stroke-linecap:butt;stroke-linejoin:round;stroke-miterlimit:4;stroke-dasharray:none;stroke-opacity:1" id="path2733" sodipodi:sides="5" sodipodi:cx="283.30188" sodipodi:cy="780.30975" sodipodi:r1="22.179152" sodipodi:r2="11.089576" sodipodi:arg1="0.93971694" sodipodi:arg2="1.5680355" inkscape:flatsided="false" inkscape:rounded="0" inkscape:randomized="0" d="M 296.38795,798.217 L 283.3325,791.39929 L 270.31489,798.28899 L 272.76457,783.76573 L 262.18941,773.51428 L 276.75885,771.35613 L 283.24065,758.13069 L 289.79537,771.32014 L 304.3765,773.39781 L 293.85811,783.70749 L 296.38795,798.217 z" transform="matrix(2.2349975,0,0,2.3479089,-184.60313,-1092.4637)"/>
    </g>
</svg>

<svg xmlns="http://www.w3.org/2000/svg" width="100" height="100" version="1">
    <path d="M296.388 798.217l-13.055-6.818-13.018 6.89 2.45-14.524-10.576-10.252 14.57-2.158 6.48-13.225 6.555 13.19 14.582 2.078-10.52 10.31 2.53 14.51z" transform="matrix(2.235 0 0 2.3479 -583.137 -1777.166)" fill="none" stroke="#000" stroke-width="2.493" stroke-linejoin="round"/>
</svg>
